svg/swarmpit.svg

<svg width="101" height="101" viewBox="0 0 101 101" fill="none" xmlns="http://www.w3.org/2000/svg">
<path d="M30.8438 75.4C26.3081 75.4 22.0749 73 19.8575 69.1L12.3988 56.3C10.0806 52.4 10.0806 47.6 12.3988 43.7L19.8575 30.9C22.1757 27 26.3081 24.6 30.8438 24.6H34.1699L38 18H27.0137C22.478 18 18.2448 20.4 16.0273 24.3L4.73866 43.7C2.42045 47.6 2.42045 52.4 4.73866 56.3L16.0273 75.7C18.3456 79.6 22.478 82 27.0137 82H38L34.1699 75.4H30.8438Z" fill="#BC4094"/>
<path d="M96.2781 43.6599L85.098 24.2902C82.8021 20.3962 78.7094 18 74.2175 18H55.451H51.7576C47.2656 18 43.0731 20.3962 40.877 24.2902L40.6774 24.5897L29.697 43.6599C28.5989 45.4571 28.0998 47.5538 28 49.6505V49.7504C28 52.0468 28.4991 54.3432 29.697 56.3401L40.6774 75.4103L40.877 75.7098C43.1729 79.6038 47.2656 82 51.7576 82H55.451H74.2175C78.7094 82 82.902 79.6038 85.098 75.7098L96.2781 56.3401C98.574 52.4462 98.574 47.5538 96.2781 43.6599Z" fill="#5D4695"/>
<path d="M46.4816 30C45.9918 30.5012 45.502 31.1027 45.1102 31.8044L45.0122 32.0049L37.1755 45.9389C36.3918 47.2421 36 48.7457 36 50.2494C36 50.2494 36 50.2494 36 50.3496C36 51.9535 36.3918 53.6577 37.1755 55.1614L45.0122 69.0954L45.1102 69.2959C45.502 69.8973 45.8939 70.4988 46.3836 71L60 50.4499L46.4816 30Z" fill="#E8E0EC"/>
<path d="M89 47C88.8005 45.8054 88.5013 44.6108 87.9029 43.6154L79.8241 29.5792C78.2283 26.7919 75.1365 25 71.9449 25H58.3806H55.6877C53.9921 25 52.3963 25.4977 51 26.2941L64.9633 46.9004H89V47Z" fill="white"/>
<path d="M51 73.6063C52.3927 74.5023 54.0838 75 55.7749 75H58.4607H71.9895C75.2722 75 78.2565 73.3077 79.8482 70.4208L87.9058 56.3846C88.5026 55.2896 88.801 54.1946 89 53H64.9267L51 73.6063Z" fill="#BB9AC9"/>
</svg>

<svg xmlns="http://www.w3.org/2000/svg" width="101" height="101" fill="none" viewBox="0 0 101 101"><path fill="#BC4094" d="M30.844 75.4c-4.536 0-8.77-2.4-10.986-6.3l-7.46-12.8a12.283 12.283 0 0 1 0-12.6l7.46-12.8c2.318-3.9 6.45-6.3 10.986-6.3h3.326L38 18H27.014c-4.536 0-8.77 2.4-10.987 6.3L4.74 43.7a12.283 12.283 0 0 0 0 12.6l11.288 19.4c2.319 3.9 6.451 6.3 10.987 6.3H38l-3.83-6.6z"/><path fill="#5D4695" d="m96.278 43.66-11.18-19.37C82.802 20.396 78.709 18 74.218 18h-22.46c-4.492 0-8.685 2.396-10.881 6.29l-.2.3-10.98 19.07C28.599 45.457 28.1 47.554 28 49.65v.1c0 2.297.5 4.593 1.697 6.59l10.98 19.07.2.3c2.296 3.894 6.389 6.29 10.88 6.29h22.461c4.491 0 8.684-2.396 10.88-6.29l11.18-19.37a12.533 12.533 0 0 0 0-12.68"/><path fill="#E8E0EC" d="M46.482 30a8.617 8.617 0 0 0-1.372 1.804l-.098.2-7.837 13.935A8.378 8.378 0 0 0 36 50.249v.1c0 1.605.392 3.309 1.175 4.812l7.837 13.934.098.2c.392.602.784 1.204 1.274 1.705L60 50.45z"/><path fill="#fff" d="M89 47c-.2-1.195-.499-2.39-1.097-3.385L79.824 29.58c-1.596-2.788-4.687-4.58-7.88-4.58H55.689c-1.696 0-3.292.498-4.688 1.294L64.963 46.9H89z"/><path fill="#BB9AC9" d="M51 73.606A8.916 8.916 0 0 0 55.775 75H71.99c3.282 0 6.267-1.692 7.858-4.58l8.058-14.035C88.503 55.29 88.8 54.195 89 53H64.927z"/></svg>
